X: 9
T: Mouth of Tobique
M: 4/4
K: G
L: 1/8
Q: 1/4=170
|: "G" GFGA BdeB | dedB G2 FG | "D" ABAF DFAF | "G" GBAF "D" D2 DF |
"G" GFGA BdeB | dedB G2 BG | "D" ABAF DFAd | "G" B G2 G G2 :|
|: ef | "Em" gfga gfeg | "D" fddd fagf | "C" ecAF "D" DFAF | "G" GABc d2 ef |
"Em" gfga gfeg | "D" fddd fagf | "C" ecAF "D" DFAd | "G" B G2 G G2 :|
|: (3DEF | "G" GGBG GcGG | BGGc GGBG | "D" FFAF FBFF | AFFB FFAF |
"G" GGBG GcGG | BGGc GGBG | "D" ABAF DFAd | "G" B G2 G G2 :|
